;FLAVOR:Marlin
;TIME:603
;Filament used: 1.91615m
;Layer height: 0.2
;MINX:92.393
;MINY:89.894
;MINZ:0.2
;MAXX:142.606
;MAXY:140.106
;MAXZ:10
;TARGET_MACHINE.NAME:ELEGOO NEPTUNE 4 Pro
;Generated with Cura_SteamEngine 5.8.0
;Post processing for aux device control using script from <URL>
M82 ;absolute extrusion mode
;ELEGOO NEPTUNE 4 / 4 PRO
M220 S100 ;Set the feed speed to 100%
M221 S100 ;Set the flow rate to 100%
M104 S140 ;Start heating extruder
M190 S60 ;Wait for the bed to reach print temp
G90
G28 ;home
G1 Z10 F300
G1 X67.5 Y0 F6000
G1 Z0 F300
M109 S210 ;Wait for extruder to reach print temp
G92 E0 ;Reset Extruder
G1 X67.5 Y0 Z0.4 F300 ;Move to start position
G1 X167.5 E30 F400 ;Draw the first line
G1 Z0.6 F120.0 ;Move to side a little
G1 X162.5 F3000
G92 E0 ;Reset Extruder
G92 E0
G92 E0
G1 F2700 E-0.5
;LAYER_COUNT:50
;LAYER:0
M107
M204 S500
G0 F7200 X99.743 Y97.245 Z0.2
;TYPE:SKIRT
G1 F2700 E0
G1 F3600 X103.546 Y94.12 E0.21488
G1 X107.861 Y91.812 E0.42849
G1 X112.6 Y90.374 E0.64468
G1 X117.5 Y89.894 E0.85961
G1 X122.4 Y90.374 E1.07454
G1 X127.139 Y91.812 E1.29073
G1 X131.454 Y94.12 E1.50435
G1 X135.255 Y97.243 E1.7191
G1 X138.38 Y101.046 E1.93398
G1 X140.688 Y105.361 E2.1476
G1 X142.126 Y110.099 E2.36375
G1 X142.606 Y115.003 E2.57885
G1 X142.127 Y119.895 E2.79342
G1 X140.688 Y124.639 E3.00984
G1 X138.381 Y128.953 E3.2234
G1 X135.257 Y132.755 E3.43821
G1 X131.454 Y135.88 E3.65308
G1 X127.139 Y138.188 E3.8667
G1 X122.4 Y139.626 E4.08289
G1 X117.5 Y140.106 E4.29782
G1 X112.6 Y139.626 E4.51275
G1 X107.861 Y138.188 E4.72894
G1 X103.546 Y135.88 E4.94256
G1 X99.743 Y132.755 E5.15744
G1 X96.619 Y128.953 E5.37225
G1 X94.312 Y124.639 E5.58581
G1 X92.873 Y119.895 E5.80222
G1 X92.393 Y114.997 E6.01706
G1 X92.872 Y110.109 E6.23147
G1 X94.312 Y105.361 E6.44806
G1 X96.62 Y101.046 E6.66168
G1 X99.743 Y97.245 E6.87643
G0 F7200 X100.116 Y97.618
G1 F3600 X103.839 Y94.559 E7.08678
G1 X108.066 Y92.298 E7.29604
G1 X112.703 Y90.891 E7.50758
G1 X117.5 Y90.421 E7.71799
G1 X122.297 Y90.891 E7.9284
G1 X126.934 Y92.298 E8.13993
G1 X131.161 Y94.559 E8.3492
G1 X134.882 Y97.616 E8.55942
G1 X137.941 Y101.339 E8.76977
G1 X140.202 Y105.566 E8.97904
G1 X141.609 Y110.202 E9.19053
G1 X142.079 Y114.998 E9.4009
G1 X141.609 Y119.797 E9.6114
G1 X140.202 Y124.434 E9.82293
G1 X137.942 Y128.66 E10.03214
G1 X134.884 Y132.382 E10.24242
G1 X131.161 Y135.441 E10.45277
G1 X126.934 Y137.702 E10.66204
G1 X122.297 Y139.109 E10.87357
G1 X117.5 Y139.579 E11.08398
G1 X112.703 Y139.109 E11.29439
G1 X108.066 Y137.702 E11.50593
G1 X103.839 Y135.441 E11.71519
G1 X100.116 Y132.382 E11.92554
G1 X97.058 Y128.66 E12.13583
G1 X94.798 Y124.434 E12.34503
G1 X93.391 Y119.797 E12.55657
G1 X92.921 Y114.997 E12.76711
G1 X93.39 Y110.207 E12.97721
G1 X94.798 Y105.566 E13.18893
G1 X97.059 Y101.339 E13.39819
G1 X100.116 Y97.618 E13.60842
G0 F7200 X100.489 Y97.991
G1 F3600 X104.132 Y94.998 E13.81424
G1 X108.271 Y92.784 E14.01915
G1 X112.806 Y91.408 E14.22603
G1 X117.5 Y90.948 E14.43192
G1 X122.194 Y91.408 E14.63782
G1 X126.729 Y92.784 E14.8447
G1 X130.868 Y94.998 E15.04961
G1 X134.509 Y97.989 E15.25531
G1 X137.502 Y101.632 E15.46113
G1 X139.716 Y105.771 E15.66603
G1 X141.092 Y110.305 E15.87288
G1 X141.552 Y114.998 E16.07873
G1 X141.092 Y119.694 E16.28471
G1 X139.716 Y124.229 E16.49159
G1 X137.503 Y128.367 E16.69644
G1 X134.511 Y132.009 E16.9022
G1 X130.868 Y135.002 E17.10802
G1 X126.729 Y137.216 E17.31293
G1 X122.194 Y138.592 E17.51981
G1 X117.5 Y139.052 E17.7257
G1 X112.806 Y138.592 E17.9316
G1 X108.271 Y137.216 E18.13848
G1 X104.132 Y135.002 E18.34339
G1 X100.489 Y132.009 E18.54921
G1 X97.497 Y128.367 E18.75497
G1 X95.284 Y124.229 E18.95982
G1 X93.908 Y119.694 E19.1667
G1 X93.448 Y115.002 E19.37251
G1 X93.908 Y110.305 E19.57853
G1 X95.284 Y105.771 E19.78537
G1 X97.498 Y101.632 E19.99028
G1 X100.489 Y97.991 E20.19598
G0 F7200 X100.862 Y98.364
G1 F3600 X104.425 Y95.437 E20.39727
G1 X108.476 Y93.27 E20.59782
G1 X112.909 Y91.925 E20.80005
G1 X117.5 Y91.475 E21.00143
G1 X122.091 Y91.925 E21.2028
G1 X126.524 Y93.27 E21.40503
G1 X130.575 Y95.437 E21.60559
G1 X134.136 Y98.362 E21.80676
G1 X137.063 Y101.925 E22.00805
G1 X139.23 Y105.976 E22.2086
G1 X140.575 Y110.408 E22.41079
G1 X141.025 Y114.998 E22.61212
G1 X140.575 Y119.591 E22.81359
G1 X139.23 Y124.024 E23.01581
G1 X137.064 Y128.074 E23.21631
G1 X134.138 Y131.636 E23.41754
G1 X130.575 Y134.563 E23.61883
G1 X126.524 Y136.73 E23.81939
G1 X122.091 Y138.075 E24.02162
G1 X117.5 Y138.525 E24.22299
G1 X112.909 Y138.075 E24.42437
G1 X108.476 Y136.73 E24.6266
G1 X104.425 Y134.563 E24.82715
G1 X100.862 Y131.636 E25.02844
G1 X97.936 Y128.074 E25.22968
G1 X95.77 Y124.024 E25.43017
G1 X94.425 Y119.591 E25.6324
G1 X93.975 Y115.002 E25.83369
G1 X94.425 Y110.408 E26.03519
G1 X95.77 Y105.976 E26.23738
G1 X97.937 Y101.925 E26.43794
G1 X100.862 Y98.364 E26.63911
G0 F7200 X101.235 Y98.737
G1 F3600 X104.718 Y95.876 E26.83587
G1 X108.681 Y93.756 E27.03207
G1 X113.012 Y92.442 E27.22964
G1 X117.5 Y92.002 E27.4265
G1 X121.988 Y92.442 E27.62336
G1 X126.319 Y93.756 E27.82094
G1 X130.282 Y95.876 E28.01713
G1 X133.763 Y98.735 E28.21378
G1 X136.624 Y102.218 E28.41054
G1 X138.744 Y106.181 E28.60674
G1 X140.058 Y110.511 E28.80428
G1 X140.498 Y114.998 E29.00109
G1 X140.058 Y119.488 E29.19804
G1 X138.744 Y123.819 E29.39561
G1 X136.625 Y127.781 E29.59175
G1 X133.765 Y131.263 E29.78845
G1 X130.282 Y134.124 E29.98522
G1 X126.319 Y136.244 E30.18142
G1 X121.988 Y137.558 E30.37899
G1 X117.5 Y137.998 E30.57585
G1 X113.012 Y137.558 E30.77271
G1 X108.681 Y136.244 E30.97029
G1 X104.718 Y134.124 E31.16648
G1 X101.235 Y131.263 E31.36325
G1 X98.375 Y127.781 E31.55995
G1 X96.256 Y123.819 E31.75609
G1 X94.942 Y119.488 E31.95367
G1 X94.502 Y115.002 E32.15044
G1 X94.942 Y110.511 E32.34743
G1 X96.256 Y106.181 E32.54496
G1 X98.376 Y102.218 E32.74116
G1 X101.235 Y98.737 E32.9378
G0 F7200 X101.608 Y99.11
G1 F3600 X105.011 Y96.315 E33.13004
G1 X108.886 Y94.242 E33.32188
G1 X113.115 Y92.959 E33.51481
G1 X117.5 Y92.529 E33.70715
G1 X121.885 Y92.959 E33.89949
G1 X126.114 Y94.242 E34.09241
G1 X129.989 Y96.315 E34.28425
G1 X133.39 Y99.108 E34.47637
G1 X136.185 Y102.511 E34.66861
G1 X138.258 Y106.386 E34.86045
G1 X139.541 Y110.614 E35.05333
G1 X139.971 Y114.998 E35.24563
G1 X139.541 Y119.385 E35.43805
G1 X138.258 Y123.614 E35.63098
G1 X136.186 Y127.488 E35.82276
G1 X133.392 Y130.89 E36.01494
G1 X129.989 Y133.685 E36.20717
G1 X126.114 Y135.758 E36.39902
G1 X121.885 Y137.041 E36.59194
G1 X117.5 Y137.471 E36.78428
G1 X113.115 Y137.041 E36.97662
G1 X108.886 Y135.758 E37.16954
G1 X105.011 Y133.685 E37.36139
G1 X101.608 Y130.89 E37.55362
G1 X98.814 Y127.488 E37.7458
G1 X96.742 Y123.614 E37.93759
G1 X95.459 Y119.385 E38.13051
G1 X95.029 Y115.002 E38.32276
G1 X95.459 Y110.614 E38.51523
G1 X96.742 Y106.386 E38.70811
G1 X98.815 Y102.511 E38.89996
G1 X101.608 Y99.11 E39.09207
G0 F7200 X101.981 Y99.483
G1 F3600 X105.304 Y96.754 E39.27978
G1 X109.091 Y94.728 E39.46727
G1 X113.218 Y93.476 E39.65554
G1 X117.5 Y93.056 E39.84336
G1 X121.782 Y93.476 E40.03118
G1 X125.909 Y94.728 E40.21945
G1 X129.696 Y96.754 E40.40694
G1 X133.017 Y99.481 E40.59453
G1 X135.746 Y102.804 E40.78224
G1 X137.772 Y106.591 E40.96973
G1 X139.024 Y110.717 E41.15795
G1 X139.444 Y114.998 E41.34573
G1 X139.024 Y119.282 E41.53364
G1 X137.772 Y123.409 E41.72191
G1 X135.747 Y127.195 E41.90934
G1 X133.019 Y130.517 E42.09699
G1 X129.696 Y133.246 E42.2847
G1 X125.909 Y135.272 E42.47219
G1 X121.782 Y136.524 E42.66046
G1 X117.5 Y136.944 E42.84828
G1 X113.218 Y136.524 E43.0361
G1 X109.091 Y135.272 E43.22437
G1 X105.304 Y133.246 E43.41186
G1 X101.981 Y130.517 E43.59957
G1 X99.253 Y127.195 E43.78722
G1 X97.228 Y123.409 E43.97465
G1 X95.976 Y119.282 E44.16292
G1 X95.556 Y115.002 E44.35065
G1 X95.976 Y110.717 E44.53861
G1 X97.228 Y106.591 E44.72683
G1 X99.254 Y102.804 E44.91432
G1 X101.981 Y99.483 E45.10191
G0 F7200 X102.354 Y99.856
G1 F3600 X105.597 Y97.193 E45.28509
G1 X109.296 Y95.214 E45.46822
G1 X113.321 Y93.993 E45.65184
G1 X117.5 Y93.583 E45.83514
G1 X121.679 Y93.993 E46.01845
G1 X125.704 Y95.214 E46.20206
G1 X129.403 Y97.193 E46.3852
G1 X132.644 Y99.854 E46.56826
G1 X135.307 Y103.097 E46.75144
G1 X137.286 Y106.796 E46.93457
G1 X138.507 Y110.82 E47.11815
G1 X138.917 Y114.998 E47.30141
G1 X138.507 Y119.179 E47.4848
G1 X137.286 Y123.204 E47.66841
G1 X135.308 Y126.902 E47.85149
G1 X132.646 Y130.144 E48.03461
G1 X129.403 Y132.807 E48.21779
G1 X125.704 Y134.786 E48.40093
G1 X121.679 Y136.007 E48.58454
G1 X117.5 Y136.417 E48.76785
G1 X113.321 Y136.007 E48.95115
G1 X109.296 Y134.786 E49.13477
G1 X105.597 Y132.807 E49.3179
G1 X102.354 Y130.144 E49.50108
G1 X99.692 Y126.902 E49.68421
G1 X97.714 Y123.204 E49.86728
G1 X96.493 Y119.179 E50.05089
G1 X96.083 Y115.002 E50.23411
G1 X96.493 Y110.82 E50.41755
G1 X97.714 Y106.796 E50.60112
G1 X99.693 Y103.097 E50.78425
G1 X102.354 Y99.856 E50.96731
G1 F2700 E50.46731
G0 F7200 X103.1 Y100.602
G1 F2700 E50.96731
G1 F3600 X106.183 Y98.071 E51.14144
G1 X109.706 Y96.186 E51.31587
G1 X113.527 Y95.027 E51.49017
G1 X117.5 Y94.637 E51.66444
G1 X121.473 Y95.027 E51.83871
G1 X125.294 Y96.186 E52.01302
G1 X128.817 Y98.071 E52.18744
G1 X131.898 Y100.6 E52.36145
G1 X134.429 Y103.683 E52.53558
G1 X136.314 Y107.206 E52.71
G1 X137.473 Y111.026 E52.88426
G1 X137.863 Y114.998 E53.05849
G1 X137.473 Y118.973 E53.23285
G1 X136.314 Y122.794 E53.40716
G1 X134.43 Y126.316 E53.58152
G1 X131.9 Y129.398 E53.75559
G1 X128.817 Y131.929 E53.92972
G1 X125.294 Y133.814 E54.10414
G1 X121.473 Y134.973 E54.27845
G1 X117.5 Y135.363 E54.45272
G1 X113.527 Y134.973 E54.62699
G1 X109.706 Y133.814 E54.80129
G1 X106.183 Y131.929 E54.97572
G1 X103.1 Y129.398 E55.14984
G1 X100.57 Y126.316 E55.32391
G1 X98.686 Y122.794 E55.49828
G1 X97.527 Y118.973 E55.67258
G1 X97.137 Y115.002 E55.84677
G1 X97.527 Y111.026 E56.02117
G1 X98.686 Y107.206 E56.19543
G1 X100.571 Y103.683 E56.36985
G1 X103.1 Y100.602 E56.54386
G0 F7200 X102.727 Y100.229
G1 F3600 X105.89 Y97.632 E56.72252
G1 X109.501 Y95.7 E56.90129
G1 X113.424 Y94.51 E57.08025
G1 X117.5 Y94.11 E57.25904
G1 X121.576 Y94.51 E57.43783
G1 X125.499 Y95.7 E57.61679
G1 X129.11 Y97.632 E57.79557
G1 X132.271 Y100.227 E57.9741
G1 X134.868 Y103.39 E58.15276
G1 X136.8 Y107.001 E58.33154
G1 X137.99 Y110.923 E58.51045
G1 X138.39 Y114.998 E58.6892
G1 X137.99 Y119.076 E58.86807
G1 X136.8 Y122.999 E59.04703
G1 X134.869 Y126.609 E59.22575
G1 X132.273 Y129.771 E59.40435
G1 X129.11 Y132.368 E59.583
G1 X125.499 Y134.3 E59.76178
G1 X121.576 Y135.49 E59.94074
G1 X117.5 Y135.89 E60.11953
G1 X113.424 Y135.49 E60.29832
G1 X109.501 Y134.3 E60.47728
G1 X105.89 Y132.368 E60.65606
G1 X102.727 Y129.771 E60.83471
G1 X100.131 Y126.609 E61.01331
G1 X98.2 Y122.999 E61.19203
G1 X97.01 Y119.076 E61.37099
G1 X96.61 Y115.002 E61.54969
G1 X97.01 Y110.923 E61.72861
G1 X98.2 Y107.001 E61.90752
G1 X100.132 Y103.39 E62.0863
G1 X102.727 Y100.229 E62.26484
G1 F2700 E61.76484
;MESH:Puck20x5.stl
G0 F7200 X103.663 Y101.163
G0 X101.642 Y104.41
G0 X99.88 Y107.701
G0 X98.792 Y111.283
G0 X98.37 Y114.999
G0 X98.291 Y114.999
;TYPE:WALL-INNER
G1 F2700 E62.26484
G1 F3600 X98.656 Y118.742 E62.42901
G1 X99.751 Y122.349 E62.59356
G1 X101.526 Y125.664 E62.75772
G1 X103.92 Y128.581 E62.92245
G1 X106.832 Y130.974 E63.08698
G1 X110.147 Y132.745 E63.25105
G1 X113.755 Y133.84 E63.41565
G1 X117.499 Y134.209 E63.57988
G1 X121.241 Y133.84 E63.74403
G1 X124.849 Y132.745 E63.90863
G1 X128.164 Y130.974 E64.0727
G1 X131.08 Y128.58 E64.23739
G1 X133.474 Y125.664 E64.40209
G1 X135.245 Y122.349 E64.56616
G1 X136.34 Y118.741 E64.73076
G1 X136.709 Y114.999 E64.89491
G1 X136.34 Y111.255 E65.05914
G1 X135.245 Y107.647 E65.22373
G1 X133.474 Y104.332 E65.3878
G1 X131.08 Y101.42 E65.55237
G1 X128.164 Y99.026 E65.71707
G1 X124.849 Y97.251 E65.88122
G1 X121.242 Y96.156 E66.04578
G1 X117.499 Y95.791 E66.20995
G1 X113.754 Y96.156 E66.37421
G1 X110.147 Y97.251 E66.53876
G1 X106.832 Y99.026 E66.70291
G1 X103.92 Y101.42 E66.86748
G1 X101.526 Y104.332 E67.03204
G1 X99.751 Y107.647 E67.19619
G1 X98.656 Y111.254 E67.36075
G1 X98.291 Y114.999 E67.52501
G0 F7200 X97.764 Y114.999
;TYPE:WALL-OUTER
G1 F3600 X98.139 Y118.844 E67.69365
G1 X99.264 Y122.551 E67.86277
G1 X101.087 Y125.957 E68.03141
G1 X103.547 Y128.953 E68.20064
G1 X106.539 Y131.413 E68.36973
G1 X109.945 Y133.232 E68.53829
G1 X113.652 Y134.357 E68.7074
G1 X117.499 Y134.736 E68.87615
G1 X121.344 Y134.357 E69.04481
G1 X125.051 Y133.232 E69.21393
G1 X128.457 Y131.413 E69.38249
G1 X131.453 Y128.953 E69.55171
G1 X133.913 Y125.957 E69.72094
G1 X135.732 Y122.551 E69.8895
G1 X136.857 Y118.844 E70.05861
G1 X137.236 Y114.999 E70.22728
G1 X136.857 Y111.152 E70.39603
G1 X135.732 Y107.445 E70.56514
G1 X133.913 Y104.039 E70.7337
G1 X131.453 Y101.047 E70.90279
G1 X128.457 Y98.587 E71.07202
G1 X125.051 Y96.764 E71.24066
G1 X121.344 Y95.639 E71.40977
G1 X117.499 Y95.264 E71.57842
G1 X113.652 Y95.639 E71.74715
G1 X109.945 Y96.764 E71.91627
G1 X106.539 Y98.587 E72.08491
G1 X103.547 Y101.047 E72.254
G1 X101.087 Y104.039 E72.42309
G1 X99.264 Y107.445 E72.59173
G1 X98.139 Y111.152 E72.76085
G1 X97.764 Y114.999 E72.92958
G0 F7200 X97.783 Y115.198
G0 X98.732 Y114.997
;TYPE:SKIN
G1 F3600 X99.087 Y111.344 E73.0898
G1 X100.16 Y107.809 E73.25107
G1 X101.891 Y104.579 E73.41104
G1 X104.231 Y101.731 E73.57195
G1 X107.079 Y99.391 E73.73286
G1 X110.309 Y97.66 E73.89283
G1 X113.844 Y96.587 E74.0541
G1 X117.497 Y96.232 E74.21432
G1 X121.148 Y96.587 E74.37445
G1 X124.683 Y97.66 E74.53572
G1 X127.909 Y99.387 E74.69546
G1 X130.769 Y101.735 E74.857
G1 X133.101 Y104.571 E75.01728
G1 X134.836 Y107.817 E75.17795
G1 X135.905 Y111.344 E75.33884
G1 X136.264 Y114.996 E75.49903
G1 X135.905 Y118.648 E75.65922
G1 X134.836 Y122.175 E75.8201
G1 X133.105 Y125.413 E75.98039
G1 X130.765 Y128.265 E76.14143
G1 X127.913 Y130.605 E76.30247
G1 X124.675 Y132.336 E76.46276
G1 X121.148 Y133.405 E76.62364
G1 X117.496 Y133.764 E76.78383
G1 X113.844 Y133.405 E76.94403
G1 X110.317 Y132.336 E77.10491
G1 X107.071 Y130.601 E77.26558
G1 X104.235 Y128.269 E77.42586
G1 X101.887 Y125.409 E77.5874
G1 X100.16 Y122.183 E77.74714
G1 X99.087 Y118.648 E77.90841
G1 X98.732 Y114.997 E78.06854
G1 F2700 E77.56854
G0 F7200 X98.374 Y114.962
G0 X98.792 Y118.713
G0 X99.88 Y122.295
G0 X101.642 Y125.587
G0 X104.018 Y128.482
G0 X107.241 Y131.103
G0 X107.536 Y130.552
G1 F2700 E78.06854
G1 F3600 X101.944 Y124.961 E78.41373
G1 X101.87 Y124.887
G0 F7200 X101.348 Y125.166
G0 X100.54 Y123.656
G0 X101.089 Y123.363
G1 F3600 X109.131 Y131.405 E78.91022
G1 X109.205 Y131.479
G0 F7200 X108.924 Y132.003
G0 X110.442 Y132.752
G0 X110.624 Y132.155
G1 F3600 X100.339 Y121.871 E79.54514
G1 X100.265 Y121.797
G0 F7200 X99.716 Y121.963
G0 X99.419 Y120.985
G0 X100.015 Y120.804
G1 F3600 X111.69 Y132.479 E80.26591
G1 X111.764 Y132.553
G0 F7200 X111.596 Y133.103
G0 X112.573 Y133.399
G0 X112.755 Y132.801
G1 F3600 X99.691 Y119.738 E81.07239
G1 X99.617 Y119.664
G0 F7200 X99.068 Y119.83
G0 X98.771 Y118.853
G0 X99.368 Y118.672
G1 F3600 X113.819 Y133.123 E81.96454
G0 F7200 X114.66 Y133.222
G1 F3600 X99.27 Y117.832 E82.91466
G0 F7200 X99.19 Y117.009
G1 F3600 X115.484 Y133.303 E83.92058
G0 F7200 X116.307 Y133.384
G1 F3600 X99.11 Y116.187 E84.98226
G0 F7200 X99.03 Y115.364
G1 F3600 X117.131 Y133.465 E86.09974
G0 F7200 X117.872 Y133.464
G1 F3600 X99.031 Y114.623 E87.26291
G0 F7200 X99.097 Y113.946
G1 F3600 X118.548 Y133.397 E88.46373
G0 F7200 X119.225 Y133.331
G1 F3600 X99.163 Y113.269 E89.70228
G0 F7200 X99.228 Y112.593
G1 F3600 X119.901 Y133.265 E90.97852
G0 F7200 X120.577 Y133.198
G1 F3600 X99.294 Y111.916 E92.29241
G0 F7200 X99.385 Y111.264
G1 F3600 X121.228 Y133.107 E93.64091
G0 F7200 X121.798 Y132.935
G1 F3600 X99.557 Y110.694 E95.01398
G0 F7200 X99.73 Y110.125
G1 F3600 X122.368 Y132.762 E96.41153
G0 F7200 X122.937 Y132.589
G1 F3600 X99.904 Y109.556 E97.8335
G0 F7200 X100.076 Y108.986
G1 F3600 X123.507 Y132.416 E99.28
G0 F7200 X124.077 Y132.244
G1 F3600 X100.249 Y108.416 E100.75105
G0 F7200 X100.432 Y107.856
G1 F3600 X124.635 Y132.06 E102.24527
G0 F7200 X125.119 Y131.801
G1 F3600 X100.691 Y107.373 E103.75336
G0 F7200 X100.949 Y106.889
